packages/icons/svg/Outline/volume-off.svg

<svg fill="none" height="24" viewBox="0 0 24 24" width="24" xmlns="http://www.w3.org/2000/svg"><path clip-rule="evenodd" d="m13.5 10.6714v-4.77299l-2.832 1.941-1.43898-1.438 4.70598-3.227c.305-.21.702-.233 1.031-.059.328.173.534.513.534.885v8.67099zm-8.79301-7.37839c-.391-.391-1.023-.391-1.414 0s-.391 1.023 0 1.414l16.00001 15.99999c.195.195.451.293.707.293s.512-.098.707-.293c.391-.391.391-1.023 0-1.414zm12.20361 10.78909 1.438 1.439c1.558-2.038 1.54-5.147-.069-7.14799-.347-.43-.976-.497-1.407-.152-.43.346-.498.975-.152 1.406.963 1.19599 1.018 3.15099.19 4.45499zm2.3114 2.3118c1.148-1.273 1.778-2.795 1.778-4.394 0-1.964-.937-3.81999-2.638-5.22899-.425-.353-.485-.984-.132-1.409.352-.425.982-.484 1.408-.133 2.168 1.796 3.362 4.202 3.362 6.77099 0 2.137-.837 4.155-2.363 5.809zm-5.722 1.7078-5.101-3.498c-.167-.113-.364-.175-.566-.175h-4.333v-4.85703h3.243l-2-2h-2.243c-.552 0-1 .447-1 1v6.85703c0 .553.448 1 1 1h5.023l6.412 4.397c.169.116.367.174.565.174.16 0 .32-.038.466-.115.328-.173.534-.513.534-.885v-1.671l-2-2z" fill="#6b7280" fill-rule="evenodd"/></svg>

<svg width="24" height="24" viewBox="0 0 24 24" fill="none" xmlns="http://www.w3.org/2000/svg">
<g id="Icon/Outline/volume-off">
<path id="Mask" fill-rule="evenodd" clip-rule="evenodd" d="M13.5 10.6714V5.89841L10.668 7.83941L9.229 6.40141L13.935 3.17441C14.24 2.96441 14.637 2.94141 14.966 3.11541C15.294 3.28841 15.5 3.62841 15.5 4.00041V12.6714L13.5 10.6714ZM4.707 3.29301C4.316 2.90201 3.684 2.90201 3.293 3.29301C2.902 3.68401 2.902 4.31601 3.293 4.70701L19.293 20.707C19.488 20.902 19.744 21 20 21C20.256 21 20.512 20.902 20.707 20.707C21.098 20.316 21.098 19.684 20.707 19.293L4.707 3.29301ZM16.9106 14.082L18.3486 15.521C19.9066 13.483 19.8886 10.374 18.2796 8.37301C17.9326 7.94301 17.3036 7.87601 16.8726 8.22101C16.4426 8.56701 16.3746 9.19601 16.7206 9.62701C17.6836 10.823 17.7386 12.778 16.9106 14.082ZM19.222 16.394C20.37 15.121 21 13.599 21 12C21 10.036 20.063 8.18001 18.362 6.77101C17.937 6.41801 17.877 5.78701 18.23 5.36201C18.582 4.93701 19.212 4.87801 19.638 5.22901C21.806 7.02501 23 9.43101 23 12C23 14.137 22.163 16.155 20.637 17.809L19.222 16.394ZM13.5 18.1016L8.399 14.6036C8.232 14.4906 8.035 14.4286 7.833 14.4286H3.5V9.57161H6.743L4.743 7.57161H2.5C1.948 7.57161 1.5 8.01861 1.5 8.57161V15.4286C1.5 15.9816 1.948 16.4286 2.5 16.4286H7.523L13.935 20.8256C14.104 20.9416 14.302 20.9996 14.5 20.9996C14.66 20.9996 14.82 20.9616 14.966 20.8846C15.294 20.7116 15.5 20.3716 15.5 19.9996V18.3286L13.5 16.3286V18.1016Z" fill="#000000"/>
</g>
</svg>
